file/zillow.svg

<svg clip-rule="evenodd" fill-rule="evenodd" stroke-linejoin="round" stroke-miterlimit="2" viewBox="0 0 560 400" xmlns="http://www.w3.org/2000/svg"><g fill="#006aff" fill-rule="nonzero"><path d="m58.333 17.628c0-4.81 3.88-8.372 8.625-8.372 4.7 0 8.58 3.562 8.58 8.372 0 4.823-3.88 8.391-8.58 8.391-4.745-.006-8.625-3.568-8.625-8.391zm-29.296-14.092v.975c0 .364-.078.475-.149.624l-9.185 15.639c-.019.026-.007.065.033.065h9.782v4.654h-17.615v-.91c0-.403.052-.487.273-.89l9.081-15.425c.019-.032.006-.065-.033-.065h-9.042v-4.667zm56.595 21.951h-4.705l-5.116-15.828h5.057l1.463 4.791c.487 1.586 1.306 4.563 1.306 4.563.013.039.065.032.071 0 0 0 .845-3.036 1.327-4.563l1.534-4.791h3.731l1.508 4.791c.507 1.638 1.3 4.563 1.3 4.563.012.039.058.039.078 0 0 0 .819-2.958 1.306-4.563l1.463-4.791h4.699l-5.083 15.828h-4.621l-1.261-3.978c-.482-1.56-1.333-4.589-1.333-4.589-.013-.039-.065-.039-.071 0 0 0-.852 2.97-1.365 4.563zm-47.735 0h-5.116v-15.828h5.116zm3.88-24.194h5.116v24.194h-5.116zm8.905 0h5.116v24.194h-5.116zm19.949 16.335c0-2.353-1.684-3.959-3.673-3.959-2.034 0-3.718 1.606-3.718 3.959 0 2.373 1.684 3.958 3.718 3.958 1.989.001 3.673-1.585 3.673-3.958zm32.571-11.765c-1.053 0-1.911.858-1.911 1.911s.858 1.911 1.911 1.911 1.911-.858 1.911-1.911-.858-1.911-1.911-1.911zm0 3.452c-.851 0-1.541-.689-1.541-1.541 0-.851.689-1.54 1.541-1.54.851 0 1.541.689 1.541 1.54 0 .852-.689 1.541-1.541 1.541zm.111-2.685c.442 0 .76.325.76.774 0 .344-.188.611-.468.721l.436.715h-.416l-.404-.663h-.357v.663h-.364v-2.21zm-.02.325h-.429v.897h.429c.241 0 .416-.189.416-.448 0-.26-.175-.449-.416-.449zm-67.957-5.226c1.592 0 2.912 1.287 2.912 2.873s-1.32 2.873-2.912 2.873c-1.593 0-2.912-1.287-2.912-2.873-.001-1.586 1.319-2.873 2.912-2.873z" transform="matrix(3.06742 0 0 3.06742 148.508 159.966)"/><path d="m6.279 22.718c-.097.052-.176.039-.254-.039l-2.171-2.587c-.058-.072-.065-.111.013-.221 1.678-2.457 5.103-6.286 7.287-7.904.039-.026.026-.059-.02-.039-2.275.741-8.742 3.523-11.134 4.875v8.787h23.277v-8.462c-3.172.539-12.675 3.367-16.998 5.59zm9.464-15.808c.117-.026.169.013.24.091.403.448 1.691 2.021 2.041 2.45.065.078.02.163-.032.208-2.6 2.028-5.493 4.901-7.105 6.955-.032.046-.006.046.02.039 2.808-1.209 9.405-3.14 12.376-3.679v-3.763l-11.628-9.198-11.648 9.191v4.114c3.607-2.144 11.953-5.466 15.736-6.408z" transform="matrix(3.07941 0 0 3.07941 89.0657 159.995)"/></g></svg>

<?xml version="1.0" encoding="UTF-8" standalone="no"?>
<!DOCTYPE svg PUBLIC "-//W3C//DTD SVG 1.1//EN" "http://www.w3.org/Graphics/SVG/1.1/DTD/svg11.dtd">
<svg width="100%" height="100%" viewBox="0 0 560 400" version="1.1" xmlns="http://www.w3.org/2000/svg" xmlns:xlink="http://www.w3.org/1999/xlink" xml:space="preserve" xmlns:serif="http://www.serif.com/" style="fill-rule:evenodd;clip-rule:evenodd;stroke-linejoin:round;stroke-miterlimit:2;">
    <g transform="matrix(3.06742,0,0,3.06742,148.508,159.966)">
        <path d="M58.333,17.628C58.333,12.818 62.213,9.256 66.958,9.256C71.658,9.256 75.538,12.818 75.538,17.628C75.538,22.451 71.658,26.019 66.958,26.019C62.213,26.013 58.333,22.451 58.333,17.628ZM29.037,3.536L29.037,4.511C29.037,4.875 28.959,4.986 28.888,5.135L19.703,20.774C19.684,20.8 19.696,20.839 19.736,20.839L29.518,20.839L29.518,25.493L11.903,25.493L11.903,24.583C11.903,24.18 11.955,24.096 12.176,23.693L21.257,8.268C21.276,8.236 21.263,8.203 21.224,8.203L12.182,8.203L12.182,3.536L29.037,3.536ZM85.632,25.487L80.927,25.487L75.811,9.659L80.868,9.659L82.331,14.45C82.818,16.036 83.637,19.013 83.637,19.013C83.65,19.052 83.702,19.045 83.708,19.013C83.708,19.013 84.553,15.977 85.035,14.45L86.569,9.659L90.3,9.659L91.808,14.45C92.315,16.088 93.108,19.013 93.108,19.013C93.12,19.052 93.166,19.052 93.186,19.013C93.186,19.013 94.005,16.055 94.492,14.45L95.955,9.659L100.654,9.659L95.571,25.487L90.95,25.487L89.689,21.509C89.207,19.949 88.356,16.92 88.356,16.92C88.343,16.881 88.291,16.881 88.285,16.92C88.285,16.92 87.433,19.89 86.92,21.483L85.632,25.487ZM37.897,25.487L32.781,25.487L32.781,9.659L37.897,9.659L37.897,25.487ZM41.777,1.293L46.893,1.293L46.893,25.487L41.777,25.487L41.777,1.293ZM50.682,1.293L55.798,1.293L55.798,25.487L50.682,25.487L50.682,1.293ZM70.631,17.628C70.631,15.275 68.947,13.669 66.958,13.669C64.924,13.669 63.24,15.275 63.24,17.628C63.24,20.001 64.924,21.586 66.958,21.586C68.947,21.587 70.631,20.001 70.631,17.628ZM103.202,5.863C102.149,5.863 101.291,6.721 101.291,7.774C101.291,8.827 102.149,9.685 103.202,9.685C104.255,9.685 105.113,8.827 105.113,7.774C105.113,6.721 104.255,5.863 103.202,5.863ZM103.202,9.315C102.351,9.315 101.661,8.626 101.661,7.774C101.661,6.923 102.35,6.234 103.202,6.234C104.053,6.234 104.743,6.923 104.743,7.774C104.743,8.626 104.054,9.315 103.202,9.315ZM103.313,6.63C103.755,6.63 104.073,6.955 104.073,7.404C104.073,7.748 103.885,8.015 103.605,8.125L104.041,8.84L103.625,8.84L103.221,8.177L102.864,8.177L102.864,8.84L102.5,8.84L102.5,6.63L103.313,6.63ZM103.293,6.955L102.864,6.955L102.864,7.852L103.293,7.852C103.534,7.852 103.709,7.663 103.709,7.404C103.709,7.144 103.534,6.955 103.293,6.955ZM35.336,1.729C36.928,1.729 38.248,3.016 38.248,4.602C38.248,6.188 36.928,7.475 35.336,7.475C33.743,7.475 32.424,6.188 32.424,4.602C32.423,3.016 33.743,1.729 35.336,1.729Z" style="fill:rgb(0,106,255);fill-rule:nonzero;"/>
    </g>
    <g transform="matrix(3.07941,0,0,3.07941,89.0657,159.995)">
        <path d="M6.279,22.718C6.182,22.77 6.103,22.757 6.025,22.679L3.854,20.092C3.796,20.02 3.789,19.981 3.867,19.871C5.545,17.414 8.97,13.585 11.154,11.967C11.193,11.941 11.18,11.908 11.134,11.928C8.859,12.669 2.392,15.451 0,16.803L0,25.59L23.277,25.59L23.277,17.128C20.105,17.667 10.602,20.495 6.279,22.718ZM15.743,6.91C15.86,6.884 15.912,6.923 15.983,7.001C16.386,7.449 17.674,9.022 18.024,9.451C18.089,9.529 18.044,9.614 17.992,9.659C15.392,11.687 12.499,14.56 10.887,16.614C10.855,16.66 10.881,16.66 10.907,16.653C13.715,15.444 20.312,13.513 23.283,12.974L23.283,9.211L11.655,0.013L0.007,9.204L0.007,13.318C3.614,11.174 11.96,7.852 15.743,6.91Z" style="fill:rgb(0,106,255);fill-rule:nonzero;"/>
    </g>
</svg>
